!!!OTL: DER GULDNE ROSENKRANZ
!!!ARE: Europa, Mitteleuropa, Deutschland
!!!SCT: E2049
!!!YEM: Copyright 1995, estate of Helmut Schaffrath.
**kern
*ICvox
*Ivox
*M4/4
*k[b-]
*F:
{4cc
=1
8cc
8b-
4a
8g
8f
4e
=2
2f
4r}
{4a
=3
8b-
8cc
4dd
8cc
8b-
4a
=4
2g
4r}
{4f
=5
8a
8b-
4cc
8f
8g
4a
=6
8b-
8cc
4dd
4g}
{4cc
=7
8cc
8b-
4a
8g
8f
4e
=8
2f
4r}
==
!!!AGN: geistlich, Marien - Lied
!!!ONB: ESAC (Essen Associative Code) Database: ERK3
!!!AMT: simple quadruple
!!!AIN: vox
!!!EED: Helmut Schaffrath
!!!EEV: 1.0
*-
